public/avatar/body/132.svg

<svg xmlns:xlink="http://www.w3.org/1999/xlink" height="82" width="84.85" xmlns="http://www.w3.org/2000/svg"><g transform="translate(37.4 42.25)"><use height="38" transform="translate(-11.95 -17.45)" width="32.05" xlink:href="#a"/><use height="38.95" transform="translate(-12.45 -17.95)" width="33.05" xlink:href="#b"/><use height="29.6" transform="matrix(-1 0 0 1 4.8 -1.5)" width="18.75" xlink:href="#c"/><use height="29.6" transform="translate(3.3 -1.5)" width="18.75" xlink:href="#c"/><use height="14.4" transform="translate(-3.35 2.35)" width="14.35" xlink:href="#d"/></g><defs><use height="38" width="32.05" xlink:href="#e" id="a"/><use height="38.95" width="33.05" xlink:href="#f" id="b"/><use height="29.6" width="18.75" xlink:href="#g" id="c"/><path d="M27.35 7.4q2.15 4.15 3.55 8.75 1.45 4.7 1.15 9.5-.35 4.95-4.2 8.1-3.8 3.2-8.75 4.05l-2.6.2q-3.6 0-7.05-1.15-4.65-1.6-7.1-5.5Q-.2 27.4.05 23q.2-4.4 2-9.3Q3.85 8.75 7 5.05 10.1 1.3 14.7.1l1.8-.1q1.9.05 3.7.8 4.75 2.05 7.15 6.6" fill="#fef2eb" fill-rule="evenodd" transform="translate(-.05)" id="e"/><path d="M27.35 7.4Q24.95 2.85 20.2.8 17.55-.3 14.7.1 10.1 1.3 7 5.05q-3.15 3.7-4.95 8.65-1.8 4.9-2 9.3-.25 4.4 2.3 8.35 2.45 3.9 7.1 5.5 4.65 1.55 9.65.95 4.95-.85 8.75-4.05 3.85-3.15 4.2-8.1.3-4.8-1.15-9.5-1.4-4.6-3.55-8.75Z" fill="none" stroke="#010102" stroke-linecap="round" stroke-linejoin="round" transform="translate(.45 .5)" id="f"/><g id="g" fill-rule="evenodd"><path d="M-8-3.3Q-3.1-.95 2.35-1.5q2.8-.3 5-1.9.45 5.9 1.3 11.8l.6 4.5-9.7 1.6-7.2.2q-2.4-5.45-1.65-11.35Q-8.85 0-8-3.3m2.35 2.85-.9-.4.1 13.25q7.15.5 14.05-1.3l-.1-1.05-.55.05-1.15.5-.2-1.2.65-.2.6-.9-.4-1.8-1.25-.1L4.85 4l.55-1.15.75-.05-.45-.75-1.05.75-.15-1L3.8.1l-.3.7-6.15-.3-.45-.1-2.55-.85m-1.55 14.4q6.1.1 12.05-1l3-.65-.05-.45-12.4 1.55h-3l.4.55" fill="#1a171b" transform="translate(9.5 14.9)"/><path d="M-8.8-5.4q1.95-.95 3.95-2 4.9-2.7 10.3-4.85l.15-1.3 1.8-1.35.85 2.05q2 5.05-.9 9.45-2.2 1.6-5 1.9Q-3.1-.95-8-3.3l-.7-.2-.1-.6.85-.25Q-4.55-3-1-2.65q2.85.3 5.35-.95l.1.1Q5.8-4.05 6.6-5.25q2.8-3 .95-7.95l-.45-1.3-1.35 1.1v1.25Q-1.5-8.75-8.8-5.4m3.15 4.95L-3.1.4l.05.85-.3.65q1.05 2.05.25 4.05l.6.8.55 2.3.05.2.5 1.95-2.15.1-.3-.65.75-.65V8.85L-3.75 8l-.65-.15L-5 3.7l.75-.05.6.65.2.95q.4-1.2-.35-2.3l-.55-.15-.55.35-.15.35-.6-3.95" fill="#9b9c9e" transform="translate(9.5 14.9)"/><path d="M-8.8-5.4q7.3-3.35 14.55-6.75v-1.25l1.35-1.1.45 1.3Q9.4-8.25 6.6-5.25l.05-.1.75-1.5q-1.2-2-3.6-2.8l-1.25-.2-.35 2.3L6.1-6.3l-.1.8-1.55.8q-.5.3-1.1.45l1 .65Q1.85-2.35-1-2.65-4.55-3-7.95-4.35l-.85.25v-1.3m9.9-1.9-.9-.4 1.2.2.35-2.1q-2.9 1-5.35 2.8l-.6 1.45-.55.3-.8-.25.45.45-1 .35.55.5 1.35-.45.2.75.35-.65v.7l.3-.4.05.5.25-.45 2.35.9.55-.55v.6l.4-.5V-3l.3-.5.1.6 2.7-.55-2.65-1q2.5-.3 4.65-1.25l-3.3-1-.15.75-.3-.65-.1.7-.4-.7-.05.75-1.4-1.45 1.15.25-.85-.45 1.15.2" fill="#cecfd0" transform="translate(9.5 14.9)"/><path d="M6.6-5.25q-.8 1.2-2.15 1.75l-.1-.1-1-.65q.6-.15 1.1-.45L6-5.5l.1-.8-3.9-1.25.35-2.3 1.25.2q2.4.8 3.6 2.8l-.75 1.5-.05.1M1.1-7.3l-1.15-.2.85.45-1.15-.25 1.4 1.45.05-.75.4.7.1-.7.3.65.15-.75 3.3 1Q3.2-4.75.7-4.45l2.65 1-2.7.55-.1-.6-.3.5v-.55l-.4.5v-.6l-.55.55-2.35-.9-.25.45-.05-.5-.3.4v-.7L-4-3.7l-.2-.75-1.35.45-.55-.5 1-.35-.45-.45.8.25.55-.3.6-1.45q2.45-1.8 5.35-2.8L1.4-7.5.2-7.7l.9.4" fill="#fff" transform="translate(9.5 14.9)"/><path d="m-6.45 12.4-.1-13.25.9.4.6 3.95.05.2.6 4.15-.65.45q-.45 1.05.2 2.1l.35.4.65-.15.3.65-.6.85-.15-.45-.4-.3-1.3.25-.45.75M-3.1.4l.45.1L3.5.8l-.35.75q.7 1.55.5 3.15l-.15.65.45.8.5-.9Q4.2 3.5 4.5 1.8l.15 1 .1 1.75.1-.55.35 2.4-.4 1.65.05 1.05.75.3.2 1.2-.35.65-.8-1.2-1.3.5q-.65.3-1.2.8l-.8-.85-1.05.1q-.8.25-1.35 1.05l-.35-.45-.5-1.95.55.9q.7-.35 1.4-.75L0 9.05-.5 7.3l-1.3.6-.15 1.15-.55-2.3.5-.65q-.7-2.15.2-4.1L-2.65.5l-.4.75L-3.1.4M-1.4 3q-.7 1.05-.3 2.4l.75-1.65.85.1-.45-.95-.85.1m4.1.45.45 1.25-.3-2.05-.95.05-.2.85 1-.1M1.6 8.9l1.1.85q1.6-1.05.15-2.85l-.5-.05q-.8.9-.75 2.05" fill="#646567" transform="translate(9.5 14.9)"/><path d="m-7.2 13.95-.4-.55h3l12.4-1.55.05.45-3 .65q-5.95 1.1-12.05 1" fill="#5e5f60" transform="translate(9.5 14.9)"/><path d="m3.5.8.3-.7.7 1.7q-.3 1.7-.05 3.45l-.5.9-.45-.8.15-.65q.2-1.6-.5-3.15L3.5.8m1.15 2 1.05-.75.45.75-.75.05L4.85 4l-.1.55-.1-1.75m.55 3.6 1.25.1.4 1.8-.6.9-.65.2-.75-.3-.05-1.05.4-1.65m.6 4.2 1.15-.5.55-.05.1 1.05Q.7 12.9-6.45 12.4l.45-.75 1.3-.25.4.3.15.45.6-.85 2.15-.1.35.45q.55-.8 1.35-1.05l1.05-.1.8.85q.55-.5 1.2-.8l1.3-.5.8 1.2.35-.65m-9.65.05-.65.15-.35-.4q-.65-1.05-.2-2.1l.65-.45.65.15.65.85V10l-.75.65M-5 3.7l-.05-.2.15-.35.55-.35.55.15q.75 1.1.35 2.3l-.2-.95-.6-.65-.75.05m3.6-.7.85-.1.45.95-.85-.1-.75 1.65q-.4-1.35.3-2.4m-1.65-1.75.4-.75.85 1.5q-.9 1.95-.2 4.1l-.5.65-.6-.8q.8-2-.25-4.05l.3-.65m1.1 7.8.15-1.15 1.3-.6.5 1.75.05.35q-.7.4-1.4.75l-.55-.9-.05-.2m4.65-5.6-1 .1.2-.85.95-.05.3 2.05-.45-1.25M1.6 8.9q-.05-1.15.75-2.05l.5.05Q4.3 8.7 2.7 9.75L1.6 8.9" fill="#ffdc00" transform="translate(9.5 14.9)"/></g><g id="d" fill-rule="evenodd"><path d="m2.2 7.25-1-4.7L4.1 5 7 2.35l-1.15 5.1L11 6.25 8.05 9.4l2.85 3.15-4.85-1.05 1.2 5.25L4.1 14l-2.8 2.55q.95-4.25.9-5.05l-5.55 1.15L-.3 9.4l-2.85-3.05 5.35.9" fill="#f19300" transform="translate(3.35 -2.35)"/><path d="m4.15 6 2.2-2.5-1.5 5.05L9.6 7 6.95 9.45l2.65 2.3-4.75-1.5 1.5 4.95-2.2-2.45-2.2 2.45 1.5-4.85-5.2 1.4L1 9.45l-2.75-2.4 5.2 1.4-1.5-4.65L4.15 6" fill="#ffdc00" transform="translate(3.35 -2.35)"/><path d="m4.15 9.1.1-2.5L5.5 5.15 4.15 9.1m2.5.05L4.2 9.3l3.9-1.4-1.45 1.25m-2.8.15-2.5-.15L-.1 7.9l3.95 1.4m.45 3.05L4.2 9.9l1.35 3.95-1.25-1.5" fill="#fff5ca" transform="translate(3.35 -2.35)"/></g></defs></svg>

<?xml version="1.0" encoding="UTF-8" standalone="no"?>
<svg xmlns:xlink="http://www.w3.org/1999/xlink" height="82.0px" width="84.85px" xmlns="http://www.w3.org/2000/svg">
  <g transform="matrix(1.0, 0.0, 0.0, 1.0, 37.4, 42.25)">
    <use height="38.0" transform="matrix(1.0, 0.0, 0.0, 1.0, -11.95, -17.45)" width="32.05" xlink:href="#sprite0"/>
    <use height="38.95" transform="matrix(1.0, 0.0, 0.0, 1.0, -12.45, -17.95)" width="33.05" xlink:href="#sprite1"/>
    <use height="29.6" transform="matrix(-1.0, 0.0, 0.0, 1.0, 4.8, -1.5)" width="18.75" xlink:href="#sprite2"/>
    <use height="29.6" transform="matrix(1.0, 0.0, 0.0, 1.0, 3.3, -1.5)" width="18.75" xlink:href="#sprite2"/>
    <use height="14.4" transform="matrix(1.0, 0.0, 0.0, 1.0, -3.35, 2.35)" width="14.35" xlink:href="#shape3"/>
  </g>
  <defs>
    <g id="sprite0" transform="matrix(1.0, 0.0, 0.0, 1.0, -0.05, 0.0)">
      <use height="38.0" transform="matrix(1.0, 0.0, 0.0, 1.0, 0.05, 0.0)" width="32.05" xlink:href="#shape0"/>
    </g>
    <g id="shape0" transform="matrix(1.0, 0.0, 0.0, 1.0, -0.05, 0.0)">
      <path d="M27.35 7.4 Q29.5 11.55 30.9 16.15 32.35 20.85 32.05 25.65 31.7 30.6 27.85 33.75 24.05 36.95 19.1 37.8 L16.5 38.0 Q12.9 38.0 9.45 36.85 4.8 35.25 2.35 31.35 -0.2 27.4 0.05 23.0 0.25 18.6 2.05 13.7 3.85 8.75 7.0 5.05 10.1 1.3 14.7 0.1 L16.5 0.0 Q18.4 0.05 20.2 0.8 24.95 2.85 27.35 7.4" fill="#fef2eb" fill-rule="evenodd" stroke="none"/>
    </g>
    <g id="sprite1" transform="matrix(1.0, 0.0, 0.0, 1.0, 0.45, 0.5)">
      <use height="38.95" transform="matrix(1.0, 0.0, 0.0, 1.0, -0.45, -0.5)" width="33.05" xlink:href="#shape1"/>
    </g>
    <g id="shape1" transform="matrix(1.0, 0.0, 0.0, 1.0, 0.45, 0.5)">
      <path d="M27.35 7.4 Q24.95 2.85 20.2 0.8 17.55 -0.3 14.7 0.1 10.1 1.3 7.0 5.05 3.85 8.75 2.05 13.7 0.25 18.6 0.05 23.0 -0.2 27.4 2.35 31.35 4.8 35.25 9.45 36.85 14.1 38.4 19.1 37.8 24.05 36.95 27.85 33.75 31.7 30.6 32.05 25.65 32.35 20.85 30.9 16.15 29.5 11.55 27.35 7.4 Z" fill="none" stroke="#010102" stroke-linecap="round" stroke-linejoin="round" stroke-width="1.0"/>
    </g>
    <g id="sprite2" transform="matrix(1.0, 0.0, 0.0, 1.0, 9.5, 14.9)">
      <use height="29.6" transform="matrix(1.0, 0.0, 0.0, 1.0, -9.5, -14.9)" width="18.75" xlink:href="#shape2"/>
    </g>
    <g id="shape2" transform="matrix(1.0, 0.0, 0.0, 1.0, 9.5, 14.9)">
      <path d="M-8.0 -3.3 Q-3.1 -0.95 2.35 -1.5 5.15 -1.8 7.35 -3.4 7.8 2.5 8.65 8.4 L9.25 12.9 -0.45 14.5 -7.65 14.7 Q-10.05 9.25 -9.3 3.35 -8.85 0.0 -8.0 -3.3 M-5.65 -0.45 L-6.55 -0.85 -6.45 12.4 Q0.7 12.9 7.6 11.1 L7.5 10.05 6.95 10.1 5.8 10.6 5.6 9.4 6.25 9.2 6.85 8.3 6.45 6.5 5.2 6.4 4.85 4.0 5.4 2.85 6.15 2.8 5.7 2.05 4.65 2.8 4.5 1.8 3.8 0.1 3.5 0.8 -2.65 0.5 -3.1 0.4 -5.65 -0.45 M-7.2 13.95 Q-1.1 14.05 4.85 12.95 L7.85 12.3 7.8 11.85 -4.6 13.4 -7.6 13.4 -7.2 13.95" fill="#1a171b" fill-rule="evenodd" stroke="none"/>
      <path d="M-8.8 -5.4 Q-6.85 -6.35 -4.85 -7.4 0.05 -10.1 5.45 -12.25 L5.6 -13.55 7.4 -14.9 8.25 -12.85 Q10.25 -7.8 7.35 -3.4 5.15 -1.8 2.35 -1.5 -3.1 -0.95 -8.0 -3.3 L-8.7 -3.5 -8.8 -4.1 -7.95 -4.35 Q-4.55 -3.0 -1.0 -2.65 1.85 -2.35 4.35 -3.6 L4.45 -3.5 Q5.8 -4.05 6.6 -5.25 9.4 -8.25 7.55 -13.2 L7.1 -14.5 5.75 -13.4 5.75 -12.15 Q-1.5 -8.75 -8.8 -5.4 M-5.65 -0.45 L-3.1 0.4 -3.05 1.25 -3.35 1.9 Q-2.3 3.95 -3.1 5.95 L-2.5 6.75 -1.95 9.05 -1.9 9.25 -1.4 11.2 -3.55 11.3 -3.85 10.65 -3.1 10.0 -3.1 8.85 -3.75 8.0 -4.4 7.85 -5.0 3.7 -4.25 3.65 -3.65 4.3 -3.45 5.25 Q-3.05 4.05 -3.8 2.95 L-4.35 2.8 -4.9 3.15 -5.05 3.5 -5.65 -0.45" fill="#9b9c9e" fill-rule="evenodd" stroke="none"/>
      <path d="M-8.8 -5.4 Q-1.5 -8.75 5.75 -12.15 L5.75 -13.4 7.1 -14.5 7.55 -13.2 Q9.4 -8.25 6.6 -5.25 L6.65 -5.35 7.4 -6.85 Q6.2 -8.85 3.8 -9.65 L2.55 -9.85 2.2 -7.55 6.1 -6.3 6.0 -5.5 4.45 -4.7 Q3.95 -4.4 3.35 -4.25 L4.35 -3.6 Q1.85 -2.35 -1.0 -2.65 -4.55 -3.0 -7.95 -4.35 L-8.8 -4.1 -8.8 -5.4 M1.1 -7.3 L0.2 -7.7 1.4 -7.5 1.75 -9.6 Q-1.15 -8.6 -3.6 -6.8 L-4.2 -5.35 -4.75 -5.05 -5.55 -5.3 -5.1 -4.85 -6.1 -4.5 -5.55 -4.0 -4.2 -4.45 -4.0 -3.7 -3.65 -4.35 -3.65 -3.65 -3.35 -4.05 -3.3 -3.55 -3.05 -4.0 -0.7 -3.1 -0.15 -3.65 -0.15 -3.05 0.25 -3.55 0.25 -3.0 0.55 -3.5 0.65 -2.9 3.35 -3.45 0.7 -4.45 Q3.2 -4.75 5.35 -5.7 L2.05 -6.7 1.9 -5.95 1.6 -6.6 1.5 -5.9 1.1 -6.6 1.05 -5.85 -0.35 -7.3 0.8 -7.05 -0.05 -7.5 1.1 -7.3" fill="#cecfd0" fill-rule="evenodd" stroke="none"/>
      <path d="M6.6 -5.25 Q5.8 -4.05 4.45 -3.5 L4.35 -3.6 3.35 -4.25 Q3.95 -4.4 4.45 -4.7 L6.0 -5.5 6.1 -6.3 2.2 -7.55 2.55 -9.85 3.8 -9.65 Q6.2 -8.85 7.4 -6.85 L6.65 -5.35 6.6 -5.25 M1.1 -7.3 L-0.05 -7.5 0.8 -7.05 -0.35 -7.3 1.05 -5.85 1.1 -6.6 1.5 -5.9 1.6 -6.6 1.9 -5.95 2.05 -6.7 5.35 -5.7 Q3.2 -4.75 0.7 -4.45 L3.35 -3.45 0.65 -2.9 0.55 -3.5 0.25 -3.0 0.25 -3.55 -0.15 -3.05 -0.15 -3.65 -0.7 -3.1 -3.05 -4.0 -3.3 -3.55 -3.35 -4.05 -3.65 -3.65 -3.65 -4.35 -4.0 -3.7 -4.2 -4.45 -5.55 -4.0 -6.1 -4.5 -5.1 -4.85 -5.55 -5.3 -4.75 -5.05 -4.2 -5.35 -3.6 -6.8 Q-1.15 -8.6 1.75 -9.6 L1.4 -7.5 0.2 -7.7 1.1 -7.3" fill="#ffffff" fill-rule="evenodd" stroke="none"/>
      <path d="M-6.45 12.4 L-6.55 -0.85 -5.65 -0.45 -5.05 3.5 -5.0 3.7 -4.4 7.85 -5.05 8.3 Q-5.5 9.35 -4.85 10.4 L-4.5 10.8 -3.85 10.65 -3.55 11.3 -4.15 12.15 -4.3 11.7 -4.7 11.4 -6.0 11.65 -6.45 12.4 M-3.1 0.4 L-2.65 0.5 3.5 0.8 3.15 1.55 Q3.85 3.1 3.65 4.7 L3.5 5.35 3.95 6.15 4.45 5.25 Q4.2 3.5 4.5 1.8 L4.65 2.8 4.75 4.55 4.85 4.0 5.2 6.4 4.8 8.05 4.85 9.1 5.6 9.4 5.8 10.6 5.45 11.25 4.65 10.05 3.35 10.55 Q2.7 10.85 2.15 11.35 L1.35 10.5 0.3 10.6 Q-0.5 10.85 -1.05 11.65 L-1.4 11.2 -1.9 9.25 -1.35 10.15 Q-0.65 9.8 0.05 9.4 L0.0 9.05 -0.5 7.3 -1.8 7.9 -1.95 9.05 -2.5 6.75 -2.0 6.1 Q-2.7 3.95 -1.8 2.0 L-2.65 0.5 -3.05 1.25 -3.1 0.4 M-1.4 3.0 Q-2.1 4.05 -1.7 5.4 L-0.95 3.75 -0.1 3.85 -0.55 2.9 -1.4 3.0 M2.7 3.45 L3.15 4.7 2.85 2.65 1.9 2.7 1.7 3.55 2.7 3.45 M1.6 8.9 L2.7 9.75 Q4.3 8.7 2.85 6.9 L2.35 6.85 Q1.55 7.75 1.6 8.9" fill="#646567" fill-rule="evenodd" stroke="none"/>
      <path d="M-7.2 13.95 L-7.6 13.4 -4.6 13.4 7.8 11.85 7.85 12.3 4.85 12.95 Q-1.1 14.05 -7.2 13.95" fill="#5e5f60" fill-rule="evenodd" stroke="none"/>
      <path d="M3.5 0.8 L3.8 0.1 4.5 1.8 Q4.2 3.5 4.45 5.25 L3.95 6.15 3.5 5.35 3.65 4.7 Q3.85 3.1 3.15 1.55 L3.5 0.8 M4.65 2.8 L5.7 2.05 6.15 2.8 5.4 2.85 4.85 4.0 4.75 4.55 4.65 2.8 M5.2 6.4 L6.45 6.5 6.85 8.3 6.25 9.2 5.6 9.4 4.85 9.1 4.8 8.05 5.2 6.4 M5.8 10.6 L6.95 10.1 7.5 10.05 7.6 11.1 Q0.7 12.9 -6.45 12.4 L-6.0 11.65 -4.7 11.4 -4.3 11.7 -4.15 12.15 -3.55 11.3 -1.4 11.2 -1.05 11.65 Q-0.5 10.85 0.3 10.6 L1.35 10.5 2.15 11.35 Q2.7 10.85 3.35 10.55 L4.65 10.05 5.45 11.25 5.8 10.6 M-3.85 10.65 L-4.5 10.8 -4.85 10.4 Q-5.5 9.35 -5.05 8.3 L-4.4 7.85 -3.75 8.0 -3.1 8.85 -3.1 10.0 -3.85 10.65 M-5.0 3.7 L-5.05 3.5 -4.9 3.15 -4.35 2.8 -3.8 2.95 Q-3.05 4.05 -3.45 5.25 L-3.65 4.3 -4.25 3.65 -5.0 3.7 M-1.4 3.0 L-0.55 2.9 -0.1 3.85 -0.95 3.75 -1.7 5.4 Q-2.1 4.05 -1.4 3.0 M-3.05 1.25 L-2.65 0.5 -1.8 2.0 Q-2.7 3.95 -2.0 6.1 L-2.5 6.75 -3.1 5.95 Q-2.3 3.95 -3.35 1.9 L-3.05 1.25 M-1.95 9.05 L-1.8 7.9 -0.5 7.3 0.0 9.05 0.05 9.4 Q-0.65 9.8 -1.35 10.15 L-1.9 9.25 -1.95 9.05 M2.7 3.45 L1.7 3.55 1.9 2.7 2.85 2.65 3.15 4.7 2.7 3.45 M1.6 8.9 Q1.55 7.75 2.35 6.85 L2.85 6.9 Q4.3 8.7 2.7 9.75 L1.6 8.9" fill="#ffdc00" fill-rule="evenodd" stroke="none"/>
    </g>
    <g id="shape3" transform="matrix(1.0, 0.0, 0.0, 1.0, 3.35, -2.35)">
      <path d="M2.2 7.25 L1.2 2.55 4.1 5.0 7.0 2.35 5.85 7.45 11.0 6.25 8.05 9.4 10.9 12.55 6.05 11.5 7.25 16.75 4.1 14.0 1.3 16.55 Q2.25 12.3 2.2 11.5 L-3.35 12.65 -0.3 9.4 -3.15 6.35 2.2 7.25" fill="#f19300" fill-rule="evenodd" stroke="none"/>
      <path d="M4.15 6.0 L6.35 3.5 4.85 8.55 9.6 7.0 6.95 9.45 9.6 11.75 4.85 10.25 6.35 15.2 4.15 12.75 1.95 15.2 3.45 10.35 -1.75 11.75 1.0 9.45 -1.75 7.05 3.45 8.45 1.95 3.8 4.15 6.0" fill="#ffdc00" fill-rule="evenodd" stroke="none"/>
      <path d="M4.15 9.1 L4.25 6.6 5.5 5.15 4.15 9.1" fill="#fff5ca" fill-rule="evenodd" stroke="none"/>
      <path d="M6.65 9.15 L4.2 9.3 8.1 7.9 6.65 9.15" fill="#fff5ca" fill-rule="evenodd" stroke="none"/>
      <path d="M3.85 9.3 L1.35 9.15 -0.1 7.9 3.85 9.3" fill="#fff5ca" fill-rule="evenodd" stroke="none"/>
      <path d="M4.3 12.35 L4.2 9.9 5.55 13.85 4.3 12.35" fill="#fff5ca" fill-rule="evenodd" stroke="none"/>
    </g>
  </defs>
</svg>
